X:1
T: The Rosebush Jig
C:J. Scott Skinner
R:Jig
Q:180
K:A
M:6/8
L:1/16
|:e2|a2g2a2 e2f2g2|a2e2d2 c2B2A2|a2g2a2 e2f2g2|f2d2B2 B4e2|
a2g2a2 e2f2g2|a2e2d2 c2B2A2|d2c2d2 e2f2g2|a2e2c2 A4:|
|:B2|A2c2e2 A2c2e2|f2d2d2 d6|d2e2f2 B2d2f2|g2e2e2 e2f2g2|
a2g2f2 e2d2c2|f2e2d2 c2B2A2|E2d2c2 B2A2B2|c2A2A2 A4:|
